X: 1
T:An Gabhr\'an
M:C|
L:1/8
R:reel
D:Patrick Street No. 2
Z:id:hn-reel-664
K:Dm
A2AG Acdc|~A3G ADDA|A2AG Acde|1 fdec dedc:|2 fdec d2cB||
ADDE F2FD|~C3D EFGc|ADDE F2FG|AcAG ADDA|
ADDE F2FD|~C3=B, CA,G,2|ADDE F2FG|AcAG ADDA||
